modules/hawcons-stroke/icons/three-fingers-double-tap.svg

<?xml version="1.0" encoding="UTF-8" standalone="no"?>
<svg width="32px" height="32px" viewBox="0 0 32 32" version="1.1" xmlns="http://www.w3.org/2000/svg" xmlns:xlink="http://www.w3.org/1999/xlink" xmlns:sketch="http://www.bohemiancoding.com/sketch/ns">
    <!-- Generator: Sketch 3.0.3 (7891) - http://www.bohemiancoding.com/sketch -->
    <title>icon 33 three fingers double tap</title>
    <desc>Created with Sketch.</desc>
    <defs></defs>
    <g id="Page-1" stroke="none" stroke-width="1" fill="none" fill-rule="evenodd" sketch:type="MSPage">
        <g id="icon-33-three-fingers-double-tap" sketch:type="MSArtboardGroup" fill="#929292">
            <path d="M19.1864472,4.25484004 C19.5920465,4.09050339 20.0354541,4 20.5,4 C22.4329967,4 24,5.56700328 24,7.5 C24,7.66856633 23.9880835,7.83434942 23.9650469,7.99655278 L23.9650469,7.99655278 C23.9880818,8.15816977 24,8.3233482 24,8.49129639 L24,10.3286673 C24.6253999,9.55580421 25,8.57164839 25,7.5 C25,5.0147185 22.9852815,3 20.5,3 C20.145348,3 19.8002783,3.04102684 19.4692782,3.11859335 C18.6769126,2.42225039 17.6377672,2 16.5,2 C15.3622328,2 14.3230874,2.42225039 13.5307218,3.11859335 C13.1997217,3.04102684 12.854652,3 12.5,3 C10.0147185,3 8,5.0147185 8,7.5 C8,8.57164839 8.37460006,9.55580421 9,10.3286673 L9,7.50662049 C9,6.53689006 9.39264388,5.65934118 10.0272917,5.02467255 L10.0251262,5.02512623 C10.6585016,4.39175082 11.5335016,4 12.5,4 C12.9639974,4 13.4069064,4.0902898 13.812116,4.25425825 C14.4541431,3.48742514 15.4199399,3 16.5,3 C17.5777767,3 18.5437639,3.48792519 19.1864472,4.25484004 L19.1864472,4.25484004 L19.1864472,4.25484004 Z M24,11.742838 C25.2215034,10.7340464 26,9.20793705 26,7.5 C26,4.46243373 23.5375663,2 20.5,2 C20.2409099,2 19.9860041,2.01791491 19.7364537,2.05257356 C18.8283545,1.39060218 17.7097923,1 16.5,1 C15.2902077,1 14.1716455,1.39060218 13.2635463,2.05257356 C13.0139959,2.01791491 12.7590901,2 12.5,2 C9.46243373,2 7,4.46243373 7,7.5 C7,9.20793705 7.77849665,10.7340464 9,11.742838 L9,11.742838 L9,12.9781822 C7.19584359,11.823113 6,9.80120872 6,7.5 C6,3.91014895 8.91014895,1 12.5,1 C12.6695995,1 12.8376819,1.00649549 13.0040121,1.01925126 C14.0134796,0.374004566 15.213063,0 16.5,0 C17.786937,0 18.9865204,0.374004566 19.9959879,1.01925126 L19.9959879,1.01925126 C20.1623181,1.00649549 20.3304005,1 20.5,1 C24.0898511,1 27,3.91014895 27,7.5 C27,9.80120872 25.8041564,11.823113 24,12.9781822 L24,11.742838 L24,11.742838 L24,11.742838 Z M18.5,31 C14.7402849,30.9995418 12.5099958,28.9488875 10.7473755,25.9830936 C6.83536199,19.4007216 4.03386293,16.3887562 5.12103271,15.2957153 C6.23162978,14.1791206 8.94160039,16.5979243 11,18.7983451 L11,7.50524116 C11,6.66712976 11.6715729,6 12.5,6 C13.3342028,6 14,6.67391942 14,7.50524116 L14,18 L15,18 L15,6.49089813 C15,5.67622006 15.6715729,5 16.5,5 C17.3342028,5 18,5.66749783 18,6.49089813 L18,17 L19,17 L19,7.5032506 C19,6.66543579 19.6715729,6 20.5,6 C21.3342028,6 22,6.67302822 22,7.5032506 L22,18 L23,18 L23,17.5016756 C23,16.6711894 23.6715729,16 24.5,16 C25.3342028,16 26,16.6723231 26,17.5016756 L26,19.7491622 L26,23.5 C26,27.6421358 22.6421358,31 18.5,31 L18.5,31 Z M27,23.5 C27,28.1944206 23.1944206,32 18.5,32.0000003 C15.3870848,32.0000003 12.101807,30.5474856 9.84082036,26.4282229 C6.57733174,20.4825159 2.40385286,16.5832077 4.39111327,14.5959473 C5.81276236,13.1742982 8.04484162,14.5381668 10,16.3667868 L10,16.3667868 L10,7.50282288 C10,6.12598062 11.1192881,5 12.5,5 C13.1384389,5 13.7176939,5.23628158 14.1574968,5.62568646 C14.5122491,4.67469496 15.427214,4 16.5,4 C17.5803191,4 18.4911778,4.67671416 18.8436719,5.62713444 C19.284713,5.23662723 19.8646812,5 20.5,5 C21.8903379,5 23,6.12083549 23,7.50345613 L23,15.5145117 C23.4178303,15.2003871 23.937197,15.014191 24.5,15.014191 C25.8903379,15.014191 27,16.1335355 27,17.5143168 L27,23.5 L27,23.5 Z" id="three-fingers-double-tap" sketch:type="MSShapeGroup"></path>
        </g>
    </g>
</svg>

<svg width="32" height="32" viewBox="0 0 32 32" xmlns="http://www.w3.org/2000/svg"><path d="M19.186 4.255a3.5 3.5 0 0 1 4.779 3.742c.023.161.035.326.035.494v1.838a4.5 4.5 0 0 0-4.53-7.21A4.483 4.483 0 0 0 16.5 2a4.483 4.483 0 0 0-2.97 1.119A4.5 4.5 0 0 0 9 10.329V7.507c0-.97.393-1.848 1.027-2.482h-.002A3.489 3.489 0 0 1 12.5 4c.464 0 .907.09 1.312.254A3.496 3.496 0 0 1 16.5 3c1.078 0 2.044.488 2.686 1.255zM24 11.743a5.5 5.5 0 0 0-4.264-9.69A5.475 5.475 0 0 0 16.5 1c-1.21 0-2.328.39-3.236 1.053A5.5 5.5 0 0 0 9 11.743v1.235A6.5 6.5 0 0 1 13.004 1.02 6.47 6.47 0 0 1 16.5 0a6.47 6.47 0 0 1 3.496 1.02A6.5 6.5 0 0 1 24 12.978v-1.236zM18.5 31c-3.76 0-5.99-2.051-7.753-5.017-3.912-6.582-6.713-9.594-5.626-10.687 1.11-1.117 3.82 1.302 5.879 3.502V7.505a1.499 1.499 0 1 1 3 0V18h1V6.49a1.501 1.501 0 0 1 3 0V17h1V7.503C19 6.665 19.672 6 20.5 6c.834 0 1.5.673 1.5 1.503V18h1v-.498a1.5 1.5 0 1 1 3 0V23.5a7.5 7.5 0 0 1-7.5 7.5zm8.5-7.5a8.5 8.5 0 0 1-8.5 8.5c-3.113 0-6.398-1.453-8.66-5.572-3.263-5.945-7.436-9.845-5.449-11.832 1.422-1.422 3.654-.058 5.609 1.77V7.504a2.505 2.505 0 0 1 4.157-1.877A2.499 2.499 0 0 1 16.5 4c1.08 0 1.991.677 2.344 1.627A2.49 2.49 0 0 1 20.5 5C21.89 5 23 6.12 23 7.503v8.012c.418-.315.937-.5 1.5-.5 1.39 0 2.5 1.119 2.5 2.5V23.5z" fill="#929292" fill-rule="evenodd"/></svg>
